X: 30555
T: On Time
R: reel
M: 4/4
K: Cmajor
|:cEDE GEDE|DCA,C D2 ED|CA,G,A, CDEC|DCDE GDEG|
cEDE GEDE|DCA,C D2 ED|CA,G,A, CDEC|DCDE C4:|
|:AGAc GEDC|AGAc d2 cd|e2 ge d2 cd|eage dcAG|
AGAc GEDC|AGAc d2 cd|eage dfed|cAGE D4:|

